austria/municipalities/31655.svg

<?xml version="1.0" encoding="UTF-8" standalone="no"?>
<svg
   xmlns:dc="http://purl.org/dc/elements/1.1/"
   xmlns:cc="http://creativecommons.org/ns#"
   xmlns:rdf="http://www.w3.org/1999/02/22-rdf-syntax-ns#"
   xmlns:svg="http://www.w3.org/2000/svg"
   xmlns="http://www.w3.org/2000/svg"
   xmlns:xlink="http://www.w3.org/1999/xlink"
   xmlns:sodipodi="http://sodipodi.sourceforge.net/DTD/sodipodi-0.dtd"
   xmlns:inkscape="http://www.inkscape.org/namespaces/inkscape"
   version="1.1"
   id="svg2"
   width="534"
   height="600"
   viewBox="0 0 534 600"
   sodipodi:docname="Wolkersdorf.svg"
   inkscape:version="1.0.1 (3bc2e813f5, 2020-09-07)">
  <metadata
     id="metadata8">
    <rdf:RDF>
      <cc:Work
         rdf:about="">
        <dc:format>image/svg+xml</dc:format>
        <dc:type
           rdf:resource="http://purl.org/dc/dcmitype/StillImage" />
        <dc:title></dc:title>
      </cc:Work>
    </rdf:RDF>
  </metadata>
  <defs
     id="defs6">
    <clipPath
       id="SVGID_2_">
      <use
         xlink:href="#SVGID_1_"
         overflow="visible"
         id="use9"
         x="0"
         y="0"
         width="100%"
         height="100%" />
    </clipPath>
    <rect
       id="rect1261"
       x="-176.134"
       y="-213.811"
       width="406.504"
       height="492.75" />
  </defs>
  <sodipodi:namedview
     pagecolor="#ffffff"
     bordercolor="#666666"
     borderopacity="1"
     objecttolerance="10"
     gridtolerance="10"
     guidetolerance="10"
     inkscape:pageopacity="0"
     inkscape:pageshadow="2"
     inkscape:window-width="1920"
     inkscape:window-height="1001"
     id="namedview4"
     showgrid="false"
     inkscape:zoom="0.5"
     inkscape:cx="214.07635"
     inkscape:cy="314.09449"
     inkscape:window-x="-9"
     inkscape:window-y="-9"
     inkscape:window-maximized="1"
     inkscape:current-layer="g10"
     inkscape:document-rotation="0" />
  <g
     inkscape:groupmode="layer"
     inkscape:label="Image"
     id="g10">
    <g
       id="g20"
       style="opacity:0.400545;stroke:#000000;stroke-width:9.06618;stroke-miterlimit:4;stroke-dasharray:none;stroke-opacity:1"
       transform="matrix(1.2945104,0,0,1.2945104,231.8987,280.68233)">
      <g
         id="g18"
         style="stroke:#000000;stroke-width:9.06618;stroke-miterlimit:4;stroke-dasharray:none;stroke-opacity:1">
        <g
           id="g16"
           style="stroke:#000000;stroke-width:9.06618;stroke-miterlimit:4;stroke-dasharray:none;stroke-opacity:1">
          <g
             id="g14"
             style="stroke:#000000;stroke-width:9.06618;stroke-miterlimit:4;stroke-dasharray:none;stroke-opacity:1">
            <defs
               id="defs7">
              <rect
                 id="rect916"
                 x="-176.134"
                 y="-213.811"
                 width="406.504"
                 height="492.75" />
            </defs>
            <clipPath
               id="clipPath870">
              <use
                 xlink:href="#SVGID_1_"
                 overflow="visible"
                 id="use868"
                 x="0"
                 y="0"
                 width="100%"
                 height="100%" />
            </clipPath>
            <path
               clip-path="url(#SVGID_2_)"
               fill="none"
               stroke="#000000"
               stroke-width="3.048"
               d="M 26.963,-212.292 H 228.838 V 84.376 c 0,106.609 -90.328,193.031 -201.73,193.031 -111.395,0 -201.715,-86.422 -201.715,-193.031 v -296.668 z"
               id="path12"
               style="stroke:#000000;stroke-width:9.06618;stroke-miterlimit:4;stroke-dasharray:none;stroke-opacity:1" />
          </g>
        </g>
      </g>
    </g>
    <g
       id="g867-3-0"
       transform="matrix(1.3426038,0.18694365,0.18694365,1.3426038,-854.54604,-222.11198)"
       style="opacity:1;stroke-width:4.51288955;stroke-miterlimit:4;stroke-dasharray:none" />
    <path
       fill="#ffffff"
       d="M 266.80265,5.8681502 H 528.13194 V 344.2517 c 0,138.00646 -116.93053,249.88064 -261.14159,249.88064 -144.202,0 -261.1221998,-111.87418 -261.1221998,-249.88064 V 5.8681502 Z"
       id="path2-4-9"
       style="opacity:1;fill:#000000;fill-opacity:1;stroke:none;stroke-width:11.7363;stroke-miterlimit:4;stroke-dasharray:none;stroke-opacity:1"
       sodipodi:nodetypes="ccssscc" />
    <path
       id="path5791-8-9-1-6"
       style="display:inline;fill:#cccccc;fill-opacity:1;fill-rule:evenodd;stroke:none;stroke-width:7.59242;stroke-linecap:butt;stroke-linejoin:miter;stroke-miterlimit:4;stroke-dasharray:none;stroke-opacity:1"
       d="M 5.8671875 5.8671875 L 5.8671875 72.314453 C 25.039113 82.077046 44.313212 93.645327 55.65625 105.30273 C 84.377853 134.82034 82.952225 186.37111 111.67383 215.88867 C 140.39532 245.4063 191.23933 244.998 219.96094 274.51562 C 248.6825 304.03323 247.25691 355.58591 275.97852 385.10352 C 304.70009 414.62107 355.55188 414.21291 384.27344 443.73047 C 408.75753 468.89312 411.34784 510.05786 429.36719 539.94531 C 463.0149 514.34772 489.90712 480.97746 507.08203 442.66602 C 486.79843 412.55685 485.09024 368.87063 459.53906 342.61133 C 430.81747 313.09381 379.96376 313.50386 351.24219 283.98633 C 322.52062 254.4687 323.94816 202.91607 295.22656 173.39844 C 266.50495 143.88079 215.65122 144.28911 186.92969 114.77148 C 158.74125 85.801824 159.57328 35.624778 132.46289 5.8671875 L 5.8671875 5.8671875 z " />
    <path
       fill="#ffffff"
       d="M 266.80168,5.8671875 H 528.13097 V 344.25073 c 0,138.00646 -116.93053,249.88064 -261.14159,249.88064 -144.202,0 -261.1221925,-111.87418 -261.1221925,-249.88064 V 5.8671875 Z"
       id="path2-4-9-1"
       style="opacity:1;fill:none;fill-opacity:1;stroke:#000000;stroke-width:11.7363;stroke-miterlimit:4;stroke-dasharray:none;stroke-opacity:1"
       sodipodi:nodetypes="ccssscc" />
  </g>
</svg>

<svg xmlns="http://www.w3.org/2000/svg" xmlns:xlink="http://www.w3.org/1999/xlink" width="534" height="600"><defs><clipPath id="a"><use xlink:href="#SVGID_1_" overflow="visible" width="100%" height="100%"/></clipPath></defs><g style="opacity:.400545;stroke:#000;stroke-width:9.06618;stroke-miterlimit:4;stroke-dasharray:none;stroke-opacity:1"><path clip-path="url(#a)" fill="none" stroke="#000" stroke-width="3.048" d="M26.963-212.292h201.875V84.376c0 106.609-90.328 193.031-201.73 193.031-111.395 0-201.715-86.422-201.715-193.031v-296.668z" style="stroke:#000;stroke-width:9.06618;stroke-miterlimit:4;stroke-dasharray:none;stroke-opacity:1" transform="translate(231.899 280.682) scale(1.29451)"/></g><path fill="#fff" d="M266.803 5.868h261.329v338.384c0 138.006-116.93 249.88-261.142 249.88-144.202 0-261.122-111.874-261.122-249.88V5.868z" style="opacity:1;fill:#000;fill-opacity:1;stroke:none;stroke-width:11.7363;stroke-miterlimit:4;stroke-dasharray:none;stroke-opacity:1"/><path style="display:inline;fill:#ccc;fill-opacity:1;fill-rule:evenodd;stroke:none;stroke-width:7.59242;stroke-linecap:butt;stroke-linejoin:miter;stroke-miterlimit:4;stroke-dasharray:none;stroke-opacity:1" d="M5.867 5.867v66.447c19.172 9.763 38.446 21.331 49.79 32.989 28.72 29.517 27.295 81.068 56.017 110.586 28.721 29.517 79.565 29.109 108.287 58.627 28.721 29.517 27.296 81.07 56.018 110.588 28.721 29.517 79.573 29.109 108.294 58.626 24.485 25.163 27.075 66.328 45.094 96.215 33.648-25.597 60.54-58.968 77.715-97.279-20.284-30.11-21.992-73.795-47.543-100.055-28.722-29.517-79.575-29.107-108.297-58.625-28.721-29.517-27.294-81.07-56.015-110.588-28.722-29.517-79.576-29.109-108.297-58.627-28.189-28.97-27.357-79.146-54.467-108.904H5.867z"/><path fill="#fff" d="M266.802 5.867H528.13v338.384c0 138.006-116.93 249.88-261.142 249.88-144.202 0-261.122-111.874-261.122-249.88V5.867z" style="opacity:1;fill:none;fill-opacity:1;stroke:#000;stroke-width:11.7363;stroke-miterlimit:4;stroke-dasharray:none;stroke-opacity:1"/></svg>
